svg/store_remove_outline.svg

<svg xmlns="http://www.w3.org/2000/svg" viewBox="0 0 24 24"><path d="M20 6H4V4h16zm-4.31 8H14v1.69c-.63.95-1 2.08-1 3.31 0 .34.04.67.09 1H4v-6H3v-2l1-5h16l1 5v1.35c-.63-.22-1.3-.35-2-.35-1.23 0-2.36.37-3.31 1M12 14H6v4h6zm6.96-2-.6-3H5.64l-.6 3zm3.58 4.88-1.42-1.41L19 17.59l-2.12-2.12-1.41 1.41L17.59 19l-2.12 2.12 1.41 1.42L19 20.41l2.12 2.13 1.42-1.42L20.41 19z"/></svg>

<svg xmlns="http://www.w3.org/2000/svg" id="mdi-store-remove-outline" viewBox="0 0 24 24"><path d="M20 6H4V4H20V6M15.69 14H14V15.69C13.37 16.64 13 17.77 13 19C13 19.34 13.04 19.67 13.09 20H4V14H3V12L4 7H20L21 12V13.35C20.37 13.13 19.7 13 19 13C17.77 13 16.64 13.37 15.69 14M12 14H6V18H12V14M18.96 12L18.36 9H5.64L5.04 12H18.96M22.54 16.88L21.12 15.47L19 17.59L16.88 15.47L15.47 16.88L17.59 19L15.47 21.12L16.88 22.54L19 20.41L21.12 22.54L22.54 21.12L20.41 19L22.54 16.88Z" /></svg>
